X: 189
%
U:~=!turn!
T: The Forfar Hunt
C:A. Allan
O:Scotland
B:Keith Norman MacDonald : "The Skye collection of the best reels & strathspeys extant" : 1887
Z:Ralph Palmer
R:Reel
M:C
L:1/8
K:B aeolian
c | BFBc d2 df | (cA)ec aecA | BFBc d2 de | (cA)ec dBB :| c | BbBc defd | cAeA aAec |
BbBc defd | cAeA dBBc | BbBc defd | cAeA aAec | BFBc dcde | fdec dBB |]


